X: 6
T: The Cuckoo’s Nest (Ilmington)
M: 2/2
L: 1/8
K: E Minor
|:AGFE D2d2|dcdB G2B2|AGFE D2EF|G2E2 E4:|
d4 d3B|c2A2 A3B|c4 c3A|B2G2 G4|
AGFE D2d2|dBcA G2G2|FEFE D2EF|G2E2 E4||

